X:41
T:Mr Thomas Tollate’s Grounds,p.2/3. HA.041
M:6/4
L:1/4
Q:3/4=100
S:Henry Atkinson’s original MS,Hartburn,N’umberland,1694.
O:England
A:Hartburn,Northumberland
N:Second page of previous item.CGP
H:1/4
Z:vmp.Chris Partington.Jan.2004
K:F
“^8…Cont’d”G|fag fe(d/c/)|fag fgc|fag fc’d|e/d/cf efF:|
|:”9″(A/F/) (A/F/) (A/F/) (A/F/) GE|(A/F/) (A/F/) (A/F/) (A/F/) BG|
c/A/ c/A/ c/A/ c/A/ dB|(e/c/) (e/c/) (e/c/) (e/c/) fF:|
M:9/4
|:”^10″c/B/|AFF AFF GEE|AFF AFF BGG|
AFF AFF dDD|ECC ECC FA,A,:|
|:”^11″A3/2F/4G/4A A3/2F/4G/4A G3/2E/4F/4G|\
A3/2F/4G/4A A3/2F/4G/4A B3/2G/4A/4B|
A3/2F/4G/4A A3/2F/4G/4A B3/2c/4d/4d|c3/2c/4d/4e c3/2d/4e/4f4:|
|:”^12″c|f2f f>gf e2c|f2f fga g2c|f2f f>ef d2b|g2c cde f2:|
|:”^13″d/e/|f2F F>GF E2d/e/|f2F F>GA A2d/e/|\
f2F F>GF F”^min.”D G/F/|E2C C>DE F2:|
|:”^14″d/e/|fFF F/E/F/G/F BGG|fFF F/E/F/G/F BGG|
fFF F/E/F/G/F BDD|ECC C/B,/C/D/C AA,A,:|
|:”^15″f/g/a/g/f/e/ f/g/a/g/f/e/ g/a/g/f/e/g/|\
f/g/a/g/f/e/ f/g/a/g/f/a/ g/f/g/a/b/g/|
f/e/f/g/a/g/ f/e/f/g/a/g/ b/a/g/f/e/d/|\
c/B/A/G/F/A/ G/F/E/D/E/C/”^Cont’d…” FCB,:|

